!!!!SEGMENT: pl-kk--kk-i-6--056_anonim--deo-gratias.krn
!!!cenid: 16xx:1052
!!!COM: Anonim
!!!COM-rismid: pe30004985
!!!CDT:
!!!CNT:
!!!OTL: Deo gratias
!!!PDT:
!!!AGN:
!!!SMS-siglum: PL-Kk
!!!SMS-shelfmark: Kk.I.6
!!!SMS-shelfwork: 056 W
!!!SMS-variant:
!!!SMS-altvar:
!!!NIFC-rismid: 1001136586
!!!URL-scan: http://repozytorium.nifc.pl/skany/pl-kk-nut--i-6
!!!ONB-nifc: UWAGA: C (skan 0087, s. 170), T (skan 0198, s. 200), B (skan 0311, s. 204) In duplicibus
**kern	**text	**kern	**text	**kern	**text
*part3	*part3	*part2	*part2	*part1	*part1
*staff3	*staff3	*staff2	*staff2	*staff1	*staff1
*Ibass	*	*Itenor	*	*Ivox	*
*I"Basso	*	*I"Tenore	*	*I"Canto	*
*I'B	*	*I'T	*	*I'C	*
*clefF4	*	*clefC4	*	*clefC4	*
*k[]	*	*k[]	*	*k[]	*
*d:	*	*d:	*	*d:	*
*M2/2	*	*M2/2	*	*M2/2	*
*met(C|)	*	*met(C|)	*	*met(C|)	*
=1-	=1-	=1-	=1-	=1-	=1-
!!LO:TX:t=P:problem:4\ 8\ center:global
*	*	*lig	*	*	*
1D	De-	1d	De-	1A	De-
*	*	*	*	*lig	*
4AA/	.	1c	.	1A	-o
4BB/	.	.	.	.	.
4C/	.	.	.	.	.
4D/	.	.	.	.	.
*	*	*Xlig	*	*	*
=2-	=2-	=2-	=2-	=2-	=2-
*2\right	*	*	*	*	*
2.E\	.	1Bn	.	1G	.
4D/	.	.	.	.	.
*	*	*	*	*Xlig	*
*	*	*	*	*lig	*
2.C/	.	0A	-o	1A	.
4BB/	.	.	.	.	.
=3-	=3-	=3-	=3-	=3-	=3-
2AA/	-o	.	.	1c	.
1A\	gra-	.	.	.	.
*	*	*	*	*Xlig	*
*	*	*	*	*lig	*
.	.	2r	.	1B	.
*	*	*2\right	*	*	*
2G#X\	.	2B\	gra-	.	.
=4-	=4-	=4-	=4-	=4-	=4-
2A\	.	2c#X\	.	1A	.
2F\	.	1d\	.	.	.
*	*	*	*	*Xlig	*
*	*	*	*	*lig	*
!LO:LB:g=original	!	!	!	!	!
2.E\	.	.	.	1G	.
.	.	2c#X\	-ti-	.	.
4E\	-ti-	.	.	.	.
=5-	=5-	=5-	=5-	=5-	=5-
1D	-as	1d	-as	1A	.
*	*	*	*	*Xlig	*
*	*	*	*	*lig	*
!	!	!LO:LB:g=original	!	!	!
2r	.	2cn\	gra-	1A	.
1D\	De-	2d\	.	.	.
=6-	=6-	=6-	=6-	=6-	=6-
.	.	1B	.	1G	.
2C#X/	-o	.	.	.	.
*	*	*	*	*Xlig	*
*	*	*	*	*lig	*
2.D/	gra-	2A/	.	1F	.
.	.	1A\	.	.	.
4Cny/	.	.	.	.	.
=7-	=7-	=7-	=7-	=7-	=7-
2.BBn/	.	.	.	1D	.
.	.	2G#X/	-ti-	.	.
4BB/	-ti-	.	.	.	.
*	*	*	*	*Xlig	*
!	!	!	!	!LO:LB:g=original	!
2AA/	-as	1A	-as	1E	.
2.AA/	gra-	.	.	.	.
=8-	=8-	=8-	=8-	=8-	=8-
*	*	*	*	*lig	*
.	.	2r	.	1E	gra-
4BB/	.	.	.	.	.
4C/	.	2A/	De-	.	.
4D/	.	.	.	.	.
4E\	.	4Gny/	.	1G	.
4F\	.	4A/	.	.	.
4Gny\	.	4B\	.	.	.
4E\	.	4G/	.	.	.
=9-	=9-	=9-	=9-	=9-	=9-
2.F\	.	4c\	.	1A	.
.	.	4B\	-o	.	.
.	.	2.A/	gra-	.	.
4E\	.	.	.	.	.
*	*	*	*	*Xlig	*
*	*	*	*	*lig	*
1D	.	.	.	1D	.
.	.	8B\L	.	.	.
.	.	8c\J	.	.	.
.	.	1d\	.	.	.
=10-	=10-	=10-	=10-	=10-	=10-
!LO:LB:g=original	!	!	!	!	!
1AA	.	.	.	1E	.
.	.	2c#X\	-ti-	.	.
*	*	*	*	*Xlig	*
*	*	*	*	*lig	*
2BB/	.	2d\	-as	1G	.
2C#X/	-ti-	2r	.	.	.
=11-	=11-	=11-	=11-	=11-	=11-
!	!	!LO:LB:g=original	!	!	!
2D/	-as	2r	.	1F	.
1D\	De-	2A/	De-	.	.
*	*	*	*	*Xlig	*
*	*	*	*	*lig	*
.	.	2G/	.	1E	.
2C#X/	-o	2E/	.	.	.
=12-	=12-	=12-	=12-	=12-	=12-
4D/	gra-	2F/	.	1D	.
4Cny/	.	.	.	.	.
2BB/	.	4D/	-o	.	.
.	.	4d\	gra-	.	.
4AA/	.	4c#X\	.	1E	.
4BB/	.	4d\	.	.	.
4C#X/	.	4e\	.	.	.
4AA/	.	4c#\	.	.	.
*	*	*	*	*Xlig	*
=13-	=13-	=13-	=13-	=13-	=13-
4D\	.	4d\	.	1F	.
4E\	.	4A/	.	.	.
4F\	.	1A\	.	.	.
4D\	.	.	.	.	.
2.AA/	.	.	.	1E	-ti-
.	.	2A/	-ti-	.	.
4AA/	-ti-	.	.	.	.
=14-	=14-	=14-	=14-	=14-	=14-
00D;;	-as	00A;;	-as.	00D;;	-as.
=15-	=15-	=15-	=15-	=15-	=15-
*-	*-	*-	*-	*-	*-
!!!system-decoration: [(s1,s2,s3)]
!!!ENC: Andrzej Gręziak
!!!END: 2021-10-25
!!!ENC: Marta Chmielewska
!!!END: 2021-10-28
